app/img/icons/twitter.svg

<svg width="22" height="17" viewBox="0 0 22 17" fill="none" xmlns="http://www.w3.org/2000/svg">
<path d="M21.46 2C20.69 2.35 19.86 2.58 19 2.69C19.88 2.16 20.56 1.32 20.88 0.31C20.05 0.81 19.13 1.16 18.16 1.36C17.37 0.5 16.26 0 15 0C12.65 0 10.73 1.92 10.73 4.29C10.73 4.63 10.77 4.96 10.84 5.27C7.28004 5.09 4.11004 3.38 2.00004 0.79C1.63004 1.42 1.42004 2.16 1.42004 2.94C1.42004 4.43 2.17004 5.75 3.33004 6.5C2.62004 6.5 1.96004 6.3 1.38004 6V6.03C1.38004 8.11 2.86004 9.85 4.82004 10.24C4.19077 10.4122 3.53013 10.4362 2.89004 10.31C3.16165 11.1625 3.69358 11.9084 4.41106 12.4429C5.12854 12.9775 5.99549 13.2737 6.89004 13.29C5.37367 14.4904 3.49404 15.1393 1.56004 15.13C1.22004 15.13 0.880039 15.11 0.540039 15.07C2.44004 16.29 4.70004 17 7.12004 17C15 17 19.33 10.46 19.33 4.79C19.33 4.6 19.33 4.42 19.32 4.23C20.16 3.63 20.88 2.87 21.46 2Z" fill="black"/>
</svg>

<svg width="22" height="17" fill="none" xmlns="http://www.w3.org/2000/svg"><path d="M21.46 2c-.77.35-1.6.58-2.46.69.88-.53 1.56-1.37 1.88-2.38-.83.5-1.75.85-2.72 1.05C17.37.5 16.26 0 15 0c-2.35 0-4.27 1.92-4.27 4.29 0 .34.04.67.11.98C7.28 5.09 4.11 3.38 2 .79c-.37.63-.58 1.37-.58 2.15 0 1.49.75 2.81 1.91 3.56-.71 0-1.37-.2-1.95-.5v.03c0 2.08 1.48 3.82 3.44 4.21a4.22 4.22 0 01-1.93.07 4.28 4.28 0 004 2.98 8.521 8.521 0 01-5.33 1.84c-.34 0-.68-.02-1.02-.06C2.44 16.29 4.7 17 7.12 17 15 17 19.33 10.46 19.33 4.79c0-.19 0-.37-.01-.56.84-.6 1.56-1.36 2.14-2.23z" fill="#000"/></svg>
